src/asset/16px/overview2.svg

<svg width="16" height="16" viewBox="0 0 16 16" fill="none" xmlns="http://www.w3.org/2000/svg">
<path fill-rule="evenodd" clip-rule="evenodd" d="M1 2C1 1.44772 1.44772 1 2 1H6C6.55228 1 7 1.44772 7 2V6C7 6.55228 6.55228 7 6 7H2C1.44772 7 1 6.55228 1 6V2ZM3 3V5H5V3H3ZM9 2C9 1.44772 9.44772 1 10 1H14C14.5523 1 15 1.44772 15 2V6C15 6.55228 14.5523 7 14 7H10C9.44772 7 9 6.55228 9 6V2ZM11 3V5H13V3H11ZM1 10C1 9.44772 1.44772 9 2 9H6C6.55228 9 7 9.44772 7 10V14C7 14.5523 6.55228 15 6 15H2C1.44772 15 1 14.5523 1 14V10ZM3 11V13H5V11H3ZM9 10C9 9.44772 9.44772 9 10 9H14C14.5523 9 15 9.44772 15 10V14C15 14.5523 14.5523 15 14 15H10C9.44772 15 9 14.5523 9 14V10ZM11 11V13H13V11H11Z" fill="#808080"/>
</svg>

<svg width="16" height="16" fill="none" xmlns="http://www.w3.org/2000/svg"><path fill-rule="evenodd" clip-rule="evenodd" d="M1 2a1 1 0 011-1h4a1 1 0 011 1v4a1 1 0 01-1 1H2a1 1 0 01-1-1V2zm2 1v2h2V3H3zm6-1a1 1 0 011-1h4a1 1 0 011 1v4a1 1 0 01-1 1h-4a1 1 0 01-1-1V2zm2 1v2h2V3h-2zM1 10a1 1 0 011-1h4a1 1 0 011 1v4a1 1 0 01-1 1H2a1 1 0 01-1-1v-4zm2 1v2h2v-2H3zm6-1a1 1 0 011-1h4a1 1 0 011 1v4a1 1 0 01-1 1h-4a1 1 0 01-1-1v-4zm2 1v2h2v-2h-2z" fill="gray"/></svg>
